src/Assets/Icons/General/PrimaryNavbarComponent/campaignManagerIcon_selected.svg

<svg width="50" height="41" viewBox="0 0 50 41" fill="none" xmlns="http://www.w3.org/2000/svg">
<path d="M22.0407 12.4536C19.4517 12.4536 17.7237 13.4725 16.6244 14.8192C15.4952 16.2016 14.9768 17.9862 14.9768 19.5176C14.9768 21.7312 16.8031 23.5545 17.8131 25.4106C18.1825 26.0869 18.5103 26.8794 18.5103 27.7583V30.0673C22.5234 30.0822 25.312 30.0673 25.5742 30.0673V27.7583C25.5742 26.8794 25.9019 26.0869 26.2684 25.4106C27.2903 23.5366 29.1047 21.7342 29.1047 19.5176C29.1047 17.9862 28.5893 16.2016 27.4571 14.8192C26.3578 13.4725 24.6298 12.4536 22.0407 12.4536Z" fill="#0000FF"/>
<path d="M39.3477 14.1785C36.8153 5.96756 29.1615 0 20.1223 0C9.00943 0 0 9.00645 0 20.1163C0 31.2261 9.00645 40.2385 20.1223 40.2385H36.2403C43.5396 40.2385 49.4565 34.3216 49.4565 27.0223C49.4565 20.7956 45.1484 15.5699 39.3477 14.1785ZM29.3581 29.3343C29.3581 33.8747 29.5488 34.274 28.8129 34.8668C28.4494 35.1588 27.9787 35.1946 27.8953 35.1916C27.8208 35.1886 16.1985 35.1916 16.1836 35.1916C16.0972 35.1946 15.6295 35.1588 15.266 34.8668C14.5122 34.2591 14.7208 33.8569 14.7208 29.3343C14.7208 27.1862 10.3293 23.8941 10.3293 19.0884C10.3293 16.6007 11.1516 13.6989 13.0404 11.3899C14.9651 9.03624 17.9444 7.37677 22.0409 7.37677C26.1375 7.37677 29.1168 9.03624 31.0414 11.3899C32.9303 13.6959 33.7526 16.5977 33.7526 19.0884C33.7526 23.8821 29.3611 27.1922 29.3611 29.3343H29.3581Z" fill="#0000FF"/>
</svg>

<svg xmlns="http://www.w3.org/2000/svg" width="50" height="41" fill="none"><path fill="#00F" d="M22.04 12.454c-2.588 0-4.316 1.018-5.416 2.365-1.129 1.383-1.647 3.167-1.647 4.699 0 2.213 1.826 4.037 2.836 5.893.37.676.697 1.468.697 2.347v2.31c4.013.014 6.802 0 7.064 0v-2.31c0-.879.328-1.671.694-2.347 1.022-1.874 2.837-3.677 2.837-5.893 0-1.532-.516-3.316-1.648-4.699-1.1-1.347-2.827-2.365-5.416-2.365"/><path fill="#00F" d="M39.348 14.179C36.815 5.967 29.162 0 20.122 0 9.01 0 0 9.006 0 20.116S9.006 40.24 20.122 40.24H36.24c7.3 0 13.216-5.917 13.216-13.217 0-6.226-4.308-11.452-10.108-12.843m-9.99 15.155c0 4.54.19 4.94-.545 5.533a1.6 1.6 0 0 1-.918.325c-.074-.003-11.696 0-11.711 0a1.6 1.6 0 0 1-.918-.325c-.754-.608-.545-1.01-.545-5.533 0-2.148-4.392-5.44-4.392-10.246 0-2.487.823-5.39 2.711-7.698 1.925-2.354 4.904-4.013 9-4.013 4.098 0 7.077 1.66 9.001 4.013 1.89 2.306 2.712 5.208 2.712 7.698 0 4.794-4.392 8.104-4.392 10.246z"/></svg>
